X:1
T:Quest'è che già
T:Giovanni Matteo Asola
T:Source : Madrigali a due voci---Venetia---G.Vincenti---1587. Editor : André Vierendeels (15/11/17). Notes : Original clef : C3 (Fuga di doi tempi, in unisono) Editorial accidentals above the staff Quarta stanza 
T:Quest'è che già
T:©
T:©
T:©
T:©
C:Giovanni Matteo Asola
Z:©
%%score [ 1 2 ]
L:1/8
Q:1/4=120
M:4/4
K:F
V:1 treble-8 nm="Tenor 1" snm="T 1"
V:2 treble-8 nm="Tenor 2" snm="T 2"
V:1
 d4 d2 d2 | G4 A4 | B2 G2 g4- | g2 fe f2 f2 | g3 f e4 | d4 z2 G2 | B2 c2 d4 | G2 g2 g2 g2 | %8
w: Que- st'è che|già mi|fu di tem-|* * * * po'in|tem- * *|po, scal-|la si- cu-|ra, scal- la si-|
 ^f2 f2 g3 g |"^-natural" d2 g2 f4 | g4 z2 G2 | d2 d2 B2 G2 | B3 c d2 d2 | B2 c2 dG g2- | %14
w: cu- ra di sa-|lir al cie-|lo, que-|sta mi fu splen-|den- * * t'è|vi- vo lu- * *|
 g2 f2 g4 | z2 d2 f4- | f2 e2 d2 cB | A4 G2 c2 | B2 G2 A2 B2 | c4 G2 g2- | g2 f2 e4 | d4 z2 d2 | %22
w: * * me,|e vi-|* vo lu- * *|* me, que-|sta d'o- li- va|col sei ver-|* di ra-|mi, i|
 e2 c2 d2 GA | Bc d4 c2 | d2 f2 f2 f2 | g2 a2 f2 g2 | f2 d2 e4 | d4 z2 B2 | B2 c2 d2 B2 | %29
w: ver- di ra- * *||mi, e'l ca- po|cir- con- dom- mi|di sue fron-|di, e'l|ca- po cir- con-|
 A2 B2 G2 A2 | B4 A2 d2- | d2 e2 f3 d | e2 d4 c2 | d4 z2 f2 | f2 g2 a4 | g2 f4 e2 | f3 e d3 c | %37
w: dom- mi di sue|fron- di, di|_ sue fron- *||di, me-|co sa- len-|do piag- gie|col- li'e pog- *|
 B4 A4 | z2 B2 B2 c2 | defg a2 f2 | g4 a4 | f6 e2 | d2 B2 A4 | G4 z2 d2 | d2 d2 B2 c2 | %45
w: * gi,|me- co sa-|len- * * * * do|piag- gie|col- li'e|pog- * *|gi, sa-|len- do piag- gie|
"^#" G2 g4 f2 | g4 d4 | z2 f2 f2 e2 | d2 c2 B2 A2 | G3 A B3 c | d4 z2 c2 | d2 e2 f4 | g4 d2 d2 | %53
w: col- * li'e|pog- gi,|sa- len- do|piag gie col- li'e|pog- * * *|gi, me-|co sa- len-|do piag- gie|
 G2 B2 A4 | G4 z2 d2 | e2 e2 f2 f2 |"^#" d2 g2 f4 | g8 |] %58
w: col- li'e pog-|gi, sa-|len- do pia- gie|col- li'e pog|gi.|
V:2
 z8 | z8 | z8 | d4 d2 d2 | G4 A4 | B2 G2 g4- | g2 fe f2 f2 | g3 f e4 | d4 z2 G2 | B2 c2 d4 | %10
w: |||Que- stè che|già mi|fa di tem-|* * * * po'in|tem- * *|po, scal-|la si- cu-|
 G2 g2 g2 g2 | ^f2 f2 g3 g |"^-natural" d2 g2 f4 | g4 z2 G2 | d2 d2 B2 G2 | B3 c d2 d2 | %16
w: ra, sca- la si-|cu- ra di sa-|lir al cie-|lo, que-|sta mi fu splen-|den- * * t'è|
 B2 c2 dG g2- |"^#" g2 f2 g4 | z2 d2 f4- |"^#" f2 e2 d2 cB | A4 G2 c2 | B2 G2 A2 B2 | c4 G2 g2- | %23
w: vi- vo lu- * *|* * me,|e vi-|* vo lu- * *|* me, que-|sta d'o- li- va|col sei veer|
 g2 f2 e4 | d4 z2 d2 | e2 c2 d2 GA | Bc d4 c2 | d2 d2 B2 G2 | g2 a2 f2 g2 | f2 d2 e4 | d4 z2 B2 | %31
w: _ di ra-|mi, i|ver- di ra- * *||mi, e'l ca- po|cir- con- dom- mi|di sue fron-|di, e'l|
 B2 c2 d2 B2 | A2 B2 G2 A2 | B4 A2 d2- | d2 e2 f3 d | e2 d4 c2 | d4 z2 f2 | f2 g2 a4 | g2 f4 e2 | %39
w: ca- po cir- con-|dom- mi di sue|fron- di, di|_ sue fron- *||di, me-|co sa- len-|do piag- gie|
 f3 e d3 c | B4 A4 | z2 B2 B2 c2 | defg a2 f2 | g4 a4 | f6 e2 | d2 B2 A4 | G4 z2 d2 | d2 d2 B2 c2 | %48
w: col- li'e pog _|_ gi,|me- co sa-|len- * * * * do|piag- gie|col- li'e|pog- * *|gi, sa-|len- do piag- gie|
"^#" G2 g4 f2 | g4 d4 | z2 f2 f2 e2 | d2 c2 B2 A2 | G3 A B3 c | d4 z2 c2 | d2 e2 f4 | g4 d2 d2 | %56
w: col- * li'e|pog- gi,|sa- len- do|piag- gie col- li'e|pog- * * *|gi, me-|co sa- len-|do piag- gie|
 G2 B2 A4 | G8 |] %58
w: col- li'e pog-|gi.|

